X:541
T: Die lustigen Gesellen (241a), S. 517
N: T0429
O: Luxemburg
S: Singendes Volk, Esch-Alzette, 1937 posth.]
N: Blascheid, hhh Nikolaus Perl, 1902;
N: Straen, fff Witry, 10.1.1933
R: Berufslied]
M: 4/4
L: 1/16
K: G
D2 | G4F2E2E2D2D2D2 | G2G2F2A2A2G2G2
D2 | G4F2E2E2D2D2D2 | G2G2F2A2A2G2G2
GA | B4B2B2B4A2B2 | c2B2c2B2A4z2
G2 | F2A2A2A2A2d2d2c2 | B2B2A2A2G2z4

@@@ Tune index: 8595
